rospo-light/16x16/panel/tusk-indicator.svg

<svg height="16" width="16" xmlns="http://www.w3.org/2000/svg"><path d="m1.7011719 1c-.3878 0-.7011719.3133719-.7011719.7011719v12.5976561c0 .3878.3133719.701172.7011719.701172h12.5976561c.3878 0 .701172-.313372.701172-.701172v-12.5976561c0-.3878-.313372-.7011719-.701172-.7011719zm3.8984375 4h4.8007816c.3324 0 .599609.2691622.599609.6015625v4.7988285c0 .3324-.267209.599609-.599609.599609h-4.8007816c-.3324 0-.5996094-.267209-.5996094-.599609v-4.7988285c0-.3324003.2672094-.6015625.5996094-.6015625z" fill="#31363b"/></svg>

<svg xmlns="http://www.w3.org/2000/svg" width="16" height="16" version="1.1">
 <defs>
  <style id="current-color-scheme" type="text/css">
   .ColorScheme-Text { color:#31363b; } .ColorScheme-Highlight { color:#3daee9; }
  </style>
 </defs>
 <path style="fill:currentColor" class="ColorScheme-Text" d="M 1.7011719 1 C 1.3133719 1 1 1.3133719 1 1.7011719 L 1 14.298828 C 1 14.686628 1.3133719 15 1.7011719 15 L 14.298828 15 C 14.686628 15 15 14.686628 15 14.298828 L 15 1.7011719 C 15 1.3133719 14.686628 1 14.298828 1 L 1.7011719 1 z M 5.5996094 5 L 10.400391 5 C 10.732791 5 11 5.2691622 11 5.6015625 L 11 10.400391 C 11 10.732791 10.732791 11 10.400391 11 L 5.5996094 11 C 5.2672094 11 5 10.732791 5 10.400391 L 5 5.6015625 C 5 5.2691622 5.2672094 5 5.5996094 5 z"/>
</svg>
